!!!!SEGMENT: pl-kk--kk-i-3--035-002_anonim--virginitatis-et-in-terra.krn
!!!cenid: 15xx:644
!!!COM: Anonim
!!!COM-rismid: pe30004985
!!!CDT:
!!!CNT:
!!!OPR: [Virginitatis]
!!!OTL: Et in terra
!!!OMV: 002
!!!PDT:
!!!AGN:
!!!SMS-siglum: PL-Kk
!!!SMS-shelfmark: Kk.I.3
!!!SMS-shelfwork: 035-002 M
!!!SMS-variant:
!!!SMS-altvar:
!!!NIFC-rismid: 1001145538
!!!URL-scan: http://repozytorium.nifc.pl/skany/pl-kk-nut--i-3
!!!ONB-nifc: UWAGA: Discantus (s. 109r-112r, skan 0111-0114), Tenor (s. 81v-84r, skan 0254-0256), Bassus (s. 105r-108r, skan 0408-0411)
!!!key: G:mix
**kern	**text	**kern	**text	**kern	**text
*part3	*part3	*part2	*part2	*part1	*part1
*staff3	*staff3	*staff2	*staff2	*staff1	*staff1
*I"Bassus	*	*I"Tenor	*	*I"Discantus	*
*I'B	*	*I'T	*	*I'A	*
*Ibass	*	*Itenor	*	*Ialto	*
*ICvox	*	*ICvox	*	*ICvox	*
*clefF3	*	*clefC3	*	*clefC3	*
*k[]	*	*k[]	*	*k[]	*
*C:	*	*C:	*	*C:	*
*M2/1	*	*M2/1	*	*M2/1	*
*met(C|)	*	*met(C|)	*	*met(C|)	*
=1-	=1-	=1-	=1-	=1-	=1-
1r	.	1G	Et	1d	Et
*	*	*lig	*	*	*
1C	Et	1G	in	2.e/	in
.	.	.	.	4d/	ter-
=2-	=2-	=2-	=2-	=2-	=2-
2C/	in	1c	.	2e/	-ra
*	*	*	*	*2\right	*
1F	ter-	.	.	2f\	.
*	*	*Xlig	*	*	*
.	.	1B	.	2d/	.
2E/	-ra	.	.	1g\	.
=3-	=3-	=3-	=3-	=3-	=3-
*	*	*lig	*	*	*
1A	.	1c	ter-	.	.
.	.	.	.	2f\	.
1G	.	1d	.	1g	.
*	*	*Xlig	*	*	*
=4-	=4-	=4-	=4-	=4-	=4-
2r	.	1d	-ra	2r	.
!	!	!	!	!LO:SIC:v:t=custos a	!
2G/	pax	.	.	2g\	pax
*	*	*	*	*clefC2	*
!LO:SIC:v:t=custos D	!	!	!	!	!
2F/	ho-	2r	.	2a\	ho-
!LO:PB:g=original	!	!	!	!	!
2D/	.	2d/	pax	2a\	-mi-
=5-	=5-	=5-	=5-	=5-	=5-
*	*	*lig	*	*	*
2E/	.	1c	.	2g\	-ni-
2F/	.	.	.	2f/	.
1G	.	1B	.	2d/	.
.	.	.	.	2g\	.
*	*	*Xlig	*	*	*
=6-	=6-	=6-	=6-	=6-	=6-
2A/	-mi-	2c/	ho-	2f/	.
!	!	!LO:SIC:v:t=custos c	!	!	!
2G/	-ni-	2d/	-mi-	2g\	.
!	!	!LO:LB:g=original	!	!	!
1A	-bus	1c	-ni-	1e	-bus
=7-	=7-	=7-	=7-	=7-	=7-
2r	.	1B	-bus	2r	.
2E/	bo-	.	.	2g\	bo-
2F/	-ne	2r	.	2f/	-ne
2G/	vo-	2B/	bo-	2d/	vo-
=8-	=8-	=8-	=8-	=8-	=8-
2F/	-lun-	1c	-ne-	2a\	-lun-
2E/	.	.	.	2g\	.
1D	.	2.d/	-vo-	2f/	.
.	.	.	.	1a\	.
.	.	4c/	.	.	.
=9-	=9-	=9-	=9-	=9-	=9-
2E/	.	2B/	lun-	.	.
!LO:SIC:v:t=custos D	!	!	!	!LO:SIC:v:t=custos f	!
2C/	.	2c/	-ta-	1g	.
!LO:LB:g=original	!	!LO:SIC:v:t=custos G	!	!	!
1D	-ta-	1A	-tis	.	.
*	*	*	*	*clefC3	*
!	!	!	!	!LO:LB:g=original	!
.	.	.	.	2f\	-ta-
*	*	*clefC4	*	*	*
=10-	=10-	=10-	=10-	=10-	=10-
1G	-tis	1G,<	lav-	1g	-tis
*	*	*lig	*	*	*
2r	.	1D	-da-	1f	lau-
2D/	lau-	.	.	.	.
=11-	=11-	=11-	=11-	=11-	=11-
1C	-da-	1E	.	1e	-da-
*	*	*Xlig	*	*	*
2BB/	-mus	1G	.	2d/	.
2C/	.	.	.	1e\	-mus
=12-	=12-	=12-	=12-	=12-	=12-
2AA/	te	2A/	.	.	.
!	!	!LO:SIC:v:t=custos E	!	!	!
1D	.	1F	.	2f\	te
.	.	.	.	1g	.
!	!	!LO:PB:g=original	!	!	!
2C/	.	2E/	.	.	.
=13-	=13-	=13-	=13-	=13-	=13-
1D	.	4D/	.	1f	.
.	.	4E/	.	.	.
.	.	4F/	.	.	.
.	.	4D/	.	.	.
2C/	.	4E/	.	2e/	.
.	.	4F/	.	.	.
2BB/	.	1G/	.	2d/	.
=14-	=14-	=14-	=14-	=14-	=14-
1AA	.	.	.	2c/	.
.	.	2F/	-mus	4B/	.
.	.	.	.	4A/	.
!	!	!	!	!LO:SIC:v:t=custos G	!
1GG	.	1G	te	2B/	.
!	!	!	!	!LO:LB:g=original	!
.	.	.	.	2.G/	be-
=15-	=15-	=15-	=15-	=15-	=15-
!LO:SIC:v:t=custos G	!	!	!	!	!
1G	Be-	2r	.	.	.
.	.	.	.	4A/	-ne-
.	.	2G/	be-	4B/	-di-
.	.	.	.	4c/	-ci-
*clefF4	*	*	*	*	*
*2\right	*	*2\right	*	*	*
!LO:LB:g=original	!	!	!	!	!
2G\	-ne-	2B/	-ne-	2d/	-mus
4F\	-di-	2c\	-di-	2e/	.
4E/	-ci-	.	.	.	.
=16-	=16-	=16-	=16-	=16-	=16-
4D/	-mus	2d\	-ci-	1f	.
4E/	.	.	.	.	.
4F\	te	1d	.	.	.
4G\	.	.	.	.	.
1A	.	.	.	1e	.
.	.	2c/	.	.	.
=17-	=17-	=17-	=17-	=17-	=17-
!	!	!LO:SIC:v:t=custos c	!	!	!
2r	.	2B/	.	2d/	.
!	!	!LO:LB:g=original	!	!	!
2.AA/	.	2.c/	.	2.c/	te
4BB/	.	4B/	.	4d/	.
2C/	.	4A/	.	2e\	.
.	.	4G/	.	.	.
=18-	=18-	=18-	=18-	=18-	=18-
2D/	.	2F/	.	2d/	.
2E/	.	2G/	.	2c/	.
1D	.	1A	-mus	1d	.
=19-	=19-	=19-	=19-	=19-	=19-
2r	.	1G	te	2r	.
!LO:SIC:v:t=custos AA	!	!	!	!LO:SIC:v:t=custos c	!
1E	a-	.	.	1e	a-
.	.	2r	.	.	.
!LO:LB:g=original	!	!	!	!LO:PB:g=original	!
2AA/	-do-	1A\	a-	2c/	-do-
=20-	=20-	=20-	=20-	=20-	=20-
1A	-ra-	.	.	1f	-ra-
.	.	2D/	-do-	.	.
2D/	.	1F	-ra-	2f/	-mus
2F/	.	.	.	4e/	.
.	.	.	.	4d/	.
=21-	=21-	=21-	=21-	=21-	=21-
1E	.	2.G/	.	1e	.
.	.	4A/	.	.	.
1D	.	2B/	.	2.f/	te
.	.	1A\	.	.	.
.	.	.	.	4e/	.
=22-	=22-	=22-	=22-	=22-	=22-
2BB/	.	.	.	4d/	.
.	.	.	.	4c/	.
!	!	!LO:SIC:v:t=custos F	!	!	!
2C/	.	1G	.	1e	.
1AA	.	.	.	.	.
!	!	!LO:LB:g=original	!	!	!
.	.	2F/	.	4d/	.
.	.	.	.	4c/	.
=23-	=23-	=23-	=23-	=23-	=23-
*	*	*lig	*	*	*
1GG	-mus	1G	-mus	4B/	.
.	.	.	.	4G/	.
.	.	.	.	2.g\	.
1D	te	1A	.	.	.
.	.	.	.	8f/L	.
!	!	!	!	!LO:SIC:v:t=custos f	!
.	.	.	.	8e/J	.
!	!	!	!	!LO:LB:g=original	!
.	.	.	.	2f\	.
*	*	*Xlig	*	*	*
=24-	=24-	=24-	=24-	=24-	=24-
2r	.	1G	te	1g	.
1E	glo-	.	.	.	.
.	.	2r	.	2r	.
2D/	-ri-	2F/	glo-	2.f\	glo-
=25-	=25-	=25-	=25-	=25-	=25-
1F	-fi-	1A	-ri-	.	.
.	.	.	.	4e/	-ri-
.	.	.	.	4c/	.
.	.	.	.	4d/	.
!LO:SIC:v:t=custos D	!	!	!	!	!
1E	-ca-	1G	-fi-	1e	-fi-
!LO:LB:g=original	!	!	!	!	!
=26-	=26-	=26-	=26-	=26-	=26-
1D	.	2A/	-ca-	1f	-ca-
.	.	2B/	.	.	.
1C	.	2.c/	.	1e	.
.	.	4B/	.	.	.
=27-	=27-	=27-	=27-	=27-	=27-
2D/	.	2A/	.	2f\	-mus
2C/	.	2G/	.	2e\	.
2D/	.	2F/	.	2d/	.
2BB/	.	2G/	.	2d/	.
=28-	=28-	=28-	=28-	=28-	=28-
1AA	.	4A/	.	1c	.
.	.	4G/	.	.	.
.	.	4F/	.	.	.
!	!	!LO:SIC:v:t=custos D	!	!	!
.	.	4E/	.	.	.
!	!	!LO:LB:g=original	!	!	!
2.D/	.	2D/	.	2.f\	.
.	.	2.d\	.	.	.
4C/	.	.	.	4e\	.
=29-	=29-	=29-	=29-	=29-	=29-
!	!	!	!	!LO:SIC:v:t=custos g	!
4BB/	.	.	.	2d/	.
4AA/	.	4c/	.	.	.
!	!	!	!	!LO:LB:g=original	!
2GG/	.	4B/	.	2.g\	.
.	.	4A/	.	.	.
2C/	.	2G/	.	.	.
.	.	.	.	8f/L	.
.	.	.	.	8e/J	.
2BB/	.	2B/	.	2d/	.
=30-	=30-	=30-	=30-	=30-	=30-
2C/	.	1A	-mus	2.e/	.
2D/	-mus	.	.	.	.
.	.	.	.	8d/L	.
.	.	.	.	8c/J	.
!LO:SIC:v:t=custos C	!	!	!	!	!
1GGl;	te	1Gl;	te	1Bl;	te
!LO:PB:g=original	!	!	!	!	!
=31||	=31||	=31||	=31||	=31||	=31||
*lig	*	*	*	*	*
1C	Gra-	00r	.	0r	.
1F	-ci-	.	.	.	.
*Xlig	*	*	*	*	*
=32-	=32-	=32-	=32-	=32-	=32-
*	*	*	*	*lig	*
1E	-as	.	.	1c	Gra-
1F	.	.	.	1f	.
*	*	*	*	*Xlig	*
=33-	=33-	=33-	=33-	=33-	=33-
*	*	*lig	*	*	*
2G/	.	1G	Gra-	1e	-ci-
2G/	a-	.	.	.	.
*lig	*	*	*	*	*
1A	-gi-	1c	-ci-	1f	-as
*	*	*Xlig	*	*	*
=34-	=34-	=34-	=34-	=34-	=34-
1G	.	1B	.	1g	a-
*Xlig	*	*	*	*	*
*lig	*	*	*	*lig	*
!	!	!LO:SIC:v:t=custos d	!	!	!
1F	.	2c\	.	1a	.
!	!	!LO:LB:g=original	!	!	!
.	.	1d\	.	.	.
=35-	=35-	=35-	=35-	=35-	=35-
!	!	!	!	!LO:SIC:v:t=custos f	!
1E	.	.	.	1g	.
.	.	2c\	-as	.	.
*Xlig	*	*	*	*Xlig	*
*	*	*	*	*lig	*
!	!	!	!	!LO:LB:g=original	!
1D	-mus	1d	a-	1f	-gi-
=36-	=36-	=36-	=36-	=36-	=36-
2r	.	1e	-gi-	1e	.
2C/	ti-	.	.	.	.
*	*	*	*	*Xlig	*
2D/	-bi	2d\	.	2f\	-mus
2E/	.	1c\	.	2g\	.
=37-	=37-	=37-	=37-	=37-	=37-
2F/	.	.	.	2a\	.
2G\	.	2B/	-mus	2g\	.
1A	.	2.c\	.	2.e/	ti-
.	.	4d\	.	4f\	-bi
=38-	=38-	=38-	=38-	=38-	=38-
2G/	.	2e\	.	2g\	.
!LO:SIC:v:t=custos D	!	!	!	!	!
2F/	.	2.f\	.	2.a\	.
!LO:LB:g=original	!	!	!	!	!
2D/	.	.	.	.	.
.	.	4e\	.	4g\	.
2F\	.	1d\	.	2f\	.
=39-	=39-	=39-	=39-	=39-	=39-
2G\	.	.	.	1e	.
2A\	.	2c/	ti-	.	.
2B\	.	1d	-bi	2d/	.
1G\	.	.	.	1g\	pro-
=40-	=40-	=40-	=40-	=40-	=40-
!	!	!LO:SIC:v:t=custos d	!	!	!
.	.	1r	.	.	.
2A\	.	.	.	2c/	-pter
!	!	!LO:PB:g=original	!	!	!
1D	pro-	1d	pro-	1d	ma-
=41-	=41-	=41-	=41-	=41-	=41-
!	!	!	!	!LO:SIC:v:t=custos G	!
2E/	-pter	1G	-pter	0c	-gna(m)
2C/	.	.	.	.	.
1F	ma-	1A	ma-	.	.
!	!	!	!	!LO:LB:g=original	!
=42-	=42-	=42-	=42-	=42-	=42-
2E/	-gna(m)	1G	-gna(m)	2G/	tu-
2C/	.	.	.	1c	.
*	*	*lig	*	*	*
1D	.	1D	tu-	.	.
.	.	.	.	2B/	.
=43-	=43-	=43-	=43-	=43-	=43-
2r	.	1F	.	2c/	.
2D/	glo-	.	.	1d	.
*	*	*Xlig	*	*	*
2AA/	-ri-	1E	-am	.	.
!LO:SIC:v:t=custos D	!	!	!	!	!
2AA/	-am	.	.	2c/	-am
!LO:LB:g=original	!	!	!	!	!
=44-	=44-	=44-	=44-	=44-	=44-
*	*	*lig	*	*	*
1D\	tu-	1F	.	2d/	glo-
.	.	.	.	1f	.
1C	-am	1G	.	.	.
.	.	.	.	2e/	.
*	*	*Xlig	*	*	*
=45-	=45-	=45-	=45-	=45-	=45-
2r	.	2.G/	glo-	1d	.
1G	.	.	.	.	.
.	.	4A/	.	.	.
.	.	2B/	.	2d/	.
4F/	.	2c/	.	2e\	.
4E/	.	.	.	.	.
=46-	=46-	=46-	=46-	=46-	=46-
2D/	.	2d/	.	2f\	.
2E/	.	2G/	.	1g	.
1D	.	1A	-ri-	.	.
!	!	!	!	!LO:SIC:v:t=custos g	!
.	.	.	.	2f\	.
!	!	!	!	!LO:PB:g=original	!
=47-	=47-	=47-	=47-	=47-	=47-
!	!	!LO:SIC:v:t=custos c	!	!	!
0GGl;	.	0Gl;	-am	2.g\	-ri-
.	.	.	.	8f/L	-am
.	.	.	.	8e/J	.
.	.	.	.	1dl;	.
!	!	!LO:LB:g=original	!	!	!
=48||	=48||	=48||	=48||	=48||	=48||
1C	Do-	1c	Do-	1g	Do-
1G	-mi-	1B	-mi-	1g	-mi-
=49-	=49-	=49-	=49-	=49-	=49-
2.F\	-ne	2.A/	-ne	1a	-ne
4G\	.	4B/	.	.	.
!LO:SIC:v:t=custos G	!	!	!	!	!
2A\	.	2c\	.	2f/	de-
!LO:LB:g=original	!	!	!	!	!
2G\	de-	1d\	.	2g\	-us
=50-	=50-	=50-	=50-	=50-	=50-
1A	-us	.	.	1e	.
.	.	2c\	de-	.	.
2r	.	1d	-us	2c/	.
2F/	rex	.	.	2f/	.
=51-	=51-	=51-	=51-	=51-	=51-
2E/	.	2e\	rex	2g\	.
!	!	!	!	!LO:SIC:v:t=custos e	!
2F/	cel-	1d	.	2f/	.
!	!	!	!	!LO:LB:g=original	!
2G\	-le-	.	.	1e	rex
1A\	.	2c/	ce-	.	.
=52-	=52-	=52-	=52-	=52-	=52-
.	.	1B	-le-	1d	.
2G\	-stis	.	.	.	.
2A\	.	2c/	.	2r	.
2F/	.	2d/	.	2f\	cel-
=53-	=53-	=53-	=53-	=53-	=53-
1E	.	1G	-stis	2g\	-le-
.	.	.	.	2g\	.
!	!	!LO:SIC:v:t=custos A	!	!	!
1D	.	2r	.	2.f\	.
!	!	!LO:LB:g=original	!	!	!
.	.	2.A/	de-	.	.
.	.	.	.	4e/	.
=54-	=54-	=54-	=54-	=54-	=54-
2D/	.	.	.	2f\	.
.	.	4B/	-us	.	.
2C/	.	2c/	pa-	2e\	.
2G\	de-	2d\	-ter	2d/	.
!LO:SIC:v:t=custos F	!	!	!	!	!
2A\	-vs	1c\	om-	2c/	.
!LO:LB:g=original	!	!	!	!	!
=55-	=55-	=55-	=55-	=55-	=55-
2F\	pa-	.	.	2f\	.
2G\	-ter	2B/	.	2.d/	.
2F/	o-	2A/	.	.	.
.	.	.	.	8e/L	.
.	.	.	.	8d/J	.
!	!	!	!	!LO:SIC:v:t=custos f	!
2E/	-mni	2G/	.	1g\	.
=56-	=56-	=56-	=56-	=56-	=56-
*	*	*lig	*	*	*
1D	po-	1A	.	.	.
!	!	!	!	!LO:LB:g=original	!
.	.	.	.	2f\	-stis
1C	-tens	1c	.	2r	.
.	.	.	.	2g\	de-
*	*	*Xlig	*	*	*
=57-	=57-	=57-	=57-	=57-	=57-
2r	.	1G	.	2f\	-us
*	*ij	*	*	*	*
2C/	de-	.	.	2e\	pa-
2BB/	-us	2D/	.	2d/	-ter
2AA/	pa-	1F/	.	2c/	om-
=58-	=58-	=58-	=58-	=58-	=58-
1GG	-ter	.	-ni-	1g	-ni-
.	.	2E/	-po-	.	.
2.D/	o-	2F/	.	2a\	-po-
.	.	2G/	.	2.g\	.
4BB/	.	.	.	.	.
=59-	=59-	=59-	=59-	=59-	=59-
2C/	-mni-	1A	.	.	.
.	.	.	.	4e/	.
2D/	-po-	.	.	2f\	.
!LO:SIC:v:t=custos D	!	!	!	!	!
1GGl;	-tens	1Gl;	-tens	1dl;	-tens
*	*Xij	*clefC3	*	*	*
!LO:PB:g=original	!	!LO:LB:g=original	!	!	!
=60||	=60||	=60||	=60||	=60||	=60||
4D/	Do-	00r	.	1d	Do-
4E/	.	.	.	.	.
4F/	.	.	.	.	.
4G/	.	.	.	.	.
!	!	!	!	!LO:SIC:v:t=custos d	!
2A\	-mi-	.	.	2c/	-mi-
!	!	!	!	!LO:LB:g=original	!
2G/	-ne	.	.	2d/	-ne
=61-	=61-	=61-	=61-	=61-	=61-
2F/	fi-	.	.	1d	fi-
2G\	-li	.	.	.	.
2C/	.	.	.	1c	-li
2c\	v-	.	.	.	.
=62-	=62-	=62-	=62-	=62-	=62-
2B\	-ni-	0r	.	2d/	.
2A\	.	.	.	2f\	.
1G	.	.	.	2.g\	V-
.	.	.	.	4f\	-ni-
=63-	=63-	=63-	=63-	=63-	=63-
2G\	-ge-	1r	.	2e\	-ge-
2F/	.	.	.	2f\	.
1G	.	1d	Do-	2d\	.
.	.	.	.	1g\	.
=64-	=64-	=64-	=64-	=64-	=64-
!LO:SIC:v:t=custos D	!	!	!	!	!
2r	.	2c/	-mi-	.	.
!LO:LB:g=original	!	!	!	!	!
2D/	-ni-	2d/	-ne	2f\	-ni-
1G	-te	1d	fi-	1g	-te
=65-	=65-	=65-	=65-	=65-	=65-
1C	.	1c	-li	2r	.
*	*	*	*	*	*ij
!	!	!	!	!LO:SIC:v:t=custos f	!
.	.	.	.	2g\	V-
!	!	!	!	!LO:LB:g=original	!
1r	.	2d/	u-	2f\	.
.	.	2f\	-ni-	4e/	.
.	.	.	.	4d/	.
=66-	=66-	=66-	=66-	=66-	=66-
2r	.	2.g\	-ge-	2e/	.
*	*ij	*	*	*	*
2G\	v-	.	.	2d/	-ni-
.	.	4f\	-nie-	.	.
2A\	-ni-	2e/	-te	1a	-ge-
2F/	-ge-	2f\	.	.	.
=67-	=67-	=67-	=67-	=67-	=67-
1G	-ni-	1d	.	1g	-ni-
1C	-te	1c	.	1e	-te
*	*Xij	*	*	*	*Xij
=68-	=68-	=68-	=68-	=68-	=68-
!	!	!LO:SIC:v:t=custos d	!	!	!
1r	.	1r	.	1r	.
*	*	*clefC4	*	*	*
!	!	!LO:LB:g=original	!	!	!
0G	Je-	0d	Ie-	0g	Ie-
=69-	=69-	=69-	=69-	=69-	=69-
.	.	.	.	.	.
0D	-su-	0f	-su	0a	-su
=70-	=70-	=70-	=70-	=70-	=70-
.	.	.	.	.	.
0F	-cri-	0c	cri-	0a	cri-
=71-	=71-	=71-	=71-	=71-	=71-
.	.	.	.	.	.
0F	-ste	0A	-ste	0f	-ste
=72-	=72-	=72-	=72-	=72-	=72-
.	.	.	.	.	.
*lig	*	*lig	*	*	*
1G	.	1B	.	2d/	et
.	.	.	.	1g\	san-
=73-	=73-	=73-	=73-	=73-	=73-
1D	.	1A	.	.	.
.	.	.	.	2f\	.
*Xlig	*	*Xlig	*	*	*
!	!	!	!	!LO:SIC:v:t=custos f	!
1E	.	1G	et	1g	.
!	!	!	!	!LO:PB:g=original	!
=74-	=74-	=74-	=74-	=74-	=74-
2D/	.	2A/	san-	2f/	.
!LO:SIC:v:t=custos F	!	!	!	!	!
2C/	.	2.c\	.	2e/	.
!LO:LB:g=original	!	!	!	!	!
2.F/	et	.	.	1c	-cte
.	.	4B/	.	.	.
.	.	4A/	.	.	.
4E/	.	4G/	.	.	.
=75-	=75-	=75-	=75-	=75-	=75-
2D/	san-	2F/	.	2d/	spi-
2C/	-cte	2E/	.	2e/	.
2D/	.	2D/	.	2f\	.
2E/	.	1G/	-cte	2g\	.
=76-	=76-	=76-	=76-	=76-	=76-
2C/	.	.	.	2e/	.
2D/	.	2F/	spi-	2f\	.
!	!	!LO:SIC:v:t=custos B	!	!	!
2BB/	spi-	2G/	.	1d	.
!	!	!LO:PB:g=original	!	!	!
2GG/	-ri-	2B/	.	.	.
=77-	=77-	=77-	=77-	=77-	=77-
1D	.	1A	-ri-	1d	-ri-
1GGl;	-tus	1Gl;	-tus	1dl;	-tus
=78||	=78||	=78||	=78||	=78||	=78||
00r	.	1G	Do-	1d	Do-
!	!	!	!	!LO:SIC:v:t=custos d	!
.	.	1A	-mi-	1c	-mi-
!	!	!	!	!LO:LB:g=original	!
=79-	=79-	=79-	=79-	=79-	=79-
.	.	2G/	-ne	2d/	-ne
.	.	2G/	de-	1d	de-
.	.	2.G/	-us	.	.
.	.	.	.	2d/	-us
.	.	4A/	.	.	.
=80-	=80-	=80-	=80-	=80-	=80-
1r	.	2B/	a-	2d/	a-
.	.	2c/	-gnus	1g	-gnus
1D	Do-	1A	.	.	.
.	.	.	.	2f\	de-
=81-	=81-	=81-	=81-	=81-	=81-
1C	-mi-	2r	.	2g\	-i
!	!	!LO:SIC:v:t=custos A	!	!	!
.	.	2c/	de-	2g\	.
!	!	!LO:LB:g=original	!	!	!
2.D/	-ne	2A/	.	2.a\	.
.	.	2.F/	-i	.	.
!LO:SIC:v:t=custos D	!	!	!	!	!
4D/	de-	.	.	4g\	.
!LO:LB:g=original	!	!	!	!	!
=82-	=82-	=82-	=82-	=82-	=82-
2D/	-us	.	.	2.f\	.
.	.	4G/	.	.	.
1D	a-	1A	.	.	.
.	.	.	.	4e/	.
.	.	.	.	1d	.
1G\	-gnus	2.B/	fi-	.	.
=83-	=83-	=83-	=83-	=83-	=83-
.	.	.	.	1d	.
.	.	4G/	-li-	.	.
2F/	de-	2A/	-us	.	.
1G	-i	2G/	.	1r	.
.	.	2d\	pa-	.	.
=84-	=84-	=84-	=84-	=84-	=84-
2A\	fi-	2c\	-tris	2r	.
!	!	!	!	!LO:SIC:v:t=custos f	!
2G\	.	2B/	.	2e\	fi-
!	!	!	!	!LO:LB:g=original	!
2F/	.	2A/	.	2f\	.
2E/	.	2G,</	.	2g\	.
=85-	=85-	=85-	=85-	=85-	=85-
2F/	.	2r	.	2a\	-li-
1G	-li-	2.d\	.	2g\	-us
.	.	.	.	1a	pa-
!	!	!LO:SIC:v:t=custos c	!	!	!
.	.	4B/	.	.	.
*	*	*clefC3	*	*	*
!	!	!LO:LB:g=original	!	!	!
2F\	-us	1c\	.	.	.
=86-	=86-	=86-	=86-	=86-	=86-
1G	pa-	.	.	1g	-tris
.	.	2B/	.	.	.
1C	-tris	1c	.	1e	.
=87-	=87-	=87-	=87-	=87-	=87-
2r	.	0r	.	1r	.
2.D/	qvi	.	.	.	.
.	.	.	.	1f	qvi
!LO:SIC:v:t=custos F	!	!	!	!	!
4E/	.	.	.	.	.
!LO:LB:g=original	!	!	!	!	!
2F/	tol-	.	.	.	.
=88-	=88-	=88-	=88-	=88-	=88-
1G	.	1d	Qvi	1d	tol-
1D	-lis	1f	tol-	4d/	-lis
.	.	.	.	4e\	.
.	.	.	.	4f\	.
.	.	.	.	4d/	.
=89-	=89-	=89-	=89-	=89-	=89-
*lig	*	*	*	*	*
1C	pec-	1g	-lis	4e/	.
.	.	.	.	4d/	.
.	.	.	.	2.c/	pec-
1D	.	1d	pec-	.	.
!	!	!	!	!LO:SIC:v:t=custos B	!
.	.	.	.	4A/	.
!	!	!	!	!LO:LB:g=original	!
.	.	.	.	2B/	.
*Xlig	*	*	*	*	*
=90-	=90-	=90-	=90-	=90-	=90-
2AA/	-ca-	2c/	-ca-	2e/	-ca-
1BB	.	1d	.	1d	-ta
2AA/	.	2A/	.	2c/	mun-
=91-	=91-	=91-	=91-	=91-	=91-
1GG	.	1B	.	1d	-di
1D	-ta	1A	.	2r	.
.	.	.	.	1d\	mi-
=92-	=92-	=92-	=92-	=92-	=92-
2GG/	.	1G	-ta	.	.
2G\	mu(n)-	.	.	2e/	-se-
2F/	.	1c	mun-	2f\	-re
2E/	.	.	.	2g\	.
=93-	=93-	=93-	=93-	=93-	=93-
!	!	!LO:SIC:v:t=custos f	!	!	!
1D	.	2d/	.	1.a	.
*	*	*clefC4	*	*	*
!	!	!LO:LB:g=original	!	!	!
.	.	2.f\	.	.	.
1D	.	.	.	.	.
.	.	4e\	.	.	.
.	.	1d\	.	4g\	.
.	.	.	.	4f\	.
=94-	=94-	=94-	=94-	=94-	=94-
!LO:TX:t=P:problem:brak pauzy 1r	!	!	!	!	!
1ryy	.	.	.	1e	.
.	.	2c\	-di	.	.
2D/	.	2d\	.	1.d	.
2G\	.	2G/	mi-	.	.
=95-	=95-	=95-	=95-	=95-	=95-
2F/	.	2A/	-se-	.	.
!	!	!	!	!LO:SIC:v:t=custos f	!
2E/	.	1c	-re-	2e\	.
!	!	!	!	!LO:LB:g=original	!
1D	.	.	.	1f	.
.	.	2B/	.	.	.
=96-	=96-	=96-	=96-	=96-	=96-
2C/	-di	2.c/	.	2e/	.
1F	mi-	.	.	2c/	.
.	.	4B/	.	.	.
.	.	2A/	.	2d/	.
!LO:SIC:v:t=custos D	!	!	!	!	!
2E/	-se-	2G/	.	2.e/	.
!LO:PB:g=original	!	!	!	!	!
=97-	=97-	=97-	=97-	=97-	=97-
2D/	.	2F/	.	.	.
.	.	.	.	4d/	.
2GG/	-re-	2G/	.	1d	.
!	!	!LO:SIC:v:t=custos D	!	!	!
1AA	-re	1E	-re	.	.
.	.	.	.	2c/	no-
!	!	!LO:LB:g=original	!	!	!
=98-	=98-	=98-	=98-	=98-	=98-
2.A\	no-	2.D/	no-	1.d	.
4G/	.	4E/	.	.	.
2F/	.	2F/	.	.	.
2E/	.	2G/	.	2c/	.
=99-	=99-	=99-	=99-	=99-	=99-
1D	.	1A	.	1.d	.
!	!	!LO:SIC:v:t=custos d	!	!	!
2BB/	.	[1Gl;	-bis	.	.
1C/	.	.	.	1e\	.
=100-	=100-	=100-	=100-	=100-	=100-
.	.	0G]	.	.	.
4BB/	.	.	.	4d/	.
4AA/	.	.	.	4c/	.
!	!	!	!	!LO:SIC:v:t=custos a	!
1GGl;	-bis	.	.	1dl;	-bis
*	*	*clefC3	*	*	*
!	!	!	!	!LO:PB:g=original	!
=101||	=101||	=101||	=101||	=101||	=101||
0r	.	00r	.	2a\	Qvi
.	.	.	.	4g/	tol-
.	.	.	.	4f/	.
.	.	.	.	2e/	-lis
.	.	.	.	2g\	.
=102-	=102-	=102-	=102-	=102-	=102-
!LO:SIC:v:t=custos F	!	!	!	!	!
1D	qvi	.	.	2f/	.
.	.	.	.	2.f/	pec-
!LO:LB:g=original	!	!	!	!	!
1F	tol-	.	.	.	.
.	.	.	.	4e/	-ca-
.	.	.	.	4d/	.
.	.	.	.	4c/	.
=103-	=103-	=103-	=103-	=103-	=103-
1G	-lis	1d	Qui	1B	.
1D	pec-	1f	tol-	2A/	-ta
.	.	.	.	2d/	.
=104-	=104-	=104-	=104-	=104-	=104-
*lig	*	*	*	*	*
1C	-ca-	1g	-lis	2G/	.
.	.	.	.	1c	.
1D	.	1d	pec-	.	.
.	.	.	.	2B/	.
*Xlig	*	*	*	*	*
=105-	=105-	=105-	=105-	=105-	=105-
!	!	!LO:SIC:v:t=custos d	!	!LO:SIC:v:t=custos d	!
2AA/	.	2c/	-ca-	2e/	.
!	!	!LO:PB:g=original	!	!LO:LB:g=original	!
1BB	-ta	1d	.	2.d/	mun-
.	.	.	.	4B/	-di
2AA/	.	2A/	.	2c/	.
=106-	=106-	=106-	=106-	=106-	=106-
*	*	*lig	*	*	*
1GG	.	1B	-ta	0d	.
1D	mun-	1A	.	.	.
*	*	*Xlig	*	*	*
=107-	=107-	=107-	=107-	=107-	=107-
2GG/	-di	1G	.	2r	.
2G\	.	.	.	1d	su-
2F/	.	1c	mun-	.	.
2E/	.	.	.	2e\	-ſci-
=108-	=108-	=108-	=108-	=108-	=108-
2D/	.	2d/	.	2f\	-pe
2C/	.	1e	.	2g\	de-
2D/	.	.	.	1d	-pre-
!LO:SIC:v:t=custos E	!	!	!	!	!
2F/	.	1d\	.	.	.
!LO:LB:g=original	!	!	!	!	!
=109-	=109-	=109-	=109-	=109-	=109-
1E	.	.	.	1e	-ca-
.	.	2c/	.	.	.
2D/	.	2d/	.	2f\	-ci-
2.G\	su-	1d\	-di	2d/	-o-
=110-	=110-	=110-	=110-	=110-	=110-
.	.	.	.	2.g\	.
4F/	-sci-	.	.	.	.
4E/	.	1g	su-	.	.
4D/	.	.	.	4f/	.
2C/	-pe	.	.	4e/	.
!	!	!	!	!LO:SIC:v:t=custos c	!
.	.	.	.	4d/	.
!	!	!	!	!LO:LB:g=original	!
1F\	de-	1a\	.	1c\	.
=111-	=111-	=111-	=111-	=111-	=111-
.	.	.	.	.	.
!	!	!LO:SIC:v:t=custos g	!	!	!
2C/	-pre-	2g\	-sci-	1e	.
!	!	!LO:LB:g=original	!	!	!
2c\	-ca-	2g\	-pe	.	.
2B\	-ti-	1g\	de-	2d/	.
=112-	=112-	=112-	=112-	=112-	=112-
1A	-o-	.	.	2e/	.
.	.	2f\	-prec-	2f/	.
1G	-nem	1g	-ca-	1d	.
=113-	=113-	=113-	=113-	=113-	=113-
2r	.	1c	-ci-	1c	.
2F/	.	.	.	.	.
2F/	.	2.A/	-o-	2c/	.
!LO:SIC:v:t=custos E	!	!	!	!	!
2F/	.	.	.	2d/	.
.	.	4B/	.	.	.
!LO:LB:g=original	!	!	!	!	!
=114-	=114-	=114-	=114-	=114-	=114-
2E/	.	4c/	.	2.e\	.
.	.	4d/	.	.	.
2C/	.	2e\	.	.	.
.	.	.	.	4f\	.
2G\	no-	2d\	-nem	2g\	.
2F\	.	2f\	no-	2a\	.
=115-	=115-	=115-	=115-	=115-	=115-
1G	.	2e\	.	2.g\	.
.	.	1d	.	.	.
.	.	.	.	4f\	-nem
1A	.	.	.	4e/	.
!	!	!	!	!LO:SIC:v:t=custos e	!
.	.	.	.	4d/	.
!	!	!	!	!LO:LB:g=original	!
.	.	2c/	.	2e/	no-
=116-	=116-	=116-	=116-	=116-	=116-
2F\	.	0dl;<	-stram	0dl;	-stra
2G\	.	.	.	.	.
1Dl;	-stram	.	.	.	.
*	*	*clefC4	*	*	*
!	!	!LO:LB:g=original	!	!	!
=117||	=117||	=117||	=117||	=117||	=117||
*lig	*	*lig	*	*lig	*
1G	Qui	1G	Qvi	1g	Qvi
1D	.	1A	.	1f	.
*Xlig	*	*Xlig	*	*Xlig	*
=118-	=118-	=118-	=118-	=118-	=118-
2GG/	se-	1G	se-	2d/	.
2C/	-des	.	.	1e	se-
*	*	*lig	*	*	*
1D	.	1F	-des	.	.
.	.	.	.	1d\	-des
=119-	=119-	=119-	=119-	=119-	=119-
!LO:SIC:v:t=custos A	!	!	!	!	!
1AA	.	1E	.	.	.
.	.	.	.	2c/	.
*	*	*Xlig	*	*	*
!LO:LB:g=original	!	!	!	!	!
2A\	ad	1D	.	1d	.
4G/	.	.	.	.	.
4F/	.	.	.	.	.
=120-	=120-	=120-	=120-	=120-	=120-
2E/	dex-	1G	ad	2r	.
2G\	.	.	.	2d/	ad
2F/	.	2A/	dex-	2d/	dex-
2E/	-te-	1c\	.	2e\	-te-
=121-	=121-	=121-	=121-	=121-	=121-
!	!	!	!	!LO:SIC:v:t=custos e	!
1D	-ram	.	.	1f	.
.	.	2B/	.	.	.
!	!	!	!	!LO:LB:g=original	!
2C/	.	2.c/	.	2e\	-ram
4AA/	.	.	.	4c/	pa-
4BB/	.	4B/	.	4d/	.
=122-	=122-	=122-	=122-	=122-	=122-
4C/	.	2A/	-te-	4e/	.
4D/	.	.	.	4f/	.
2E/	.	2G/	-ram	1g	.
2C/	pa-	1c	.	.	.
!LO:SIC:v:t=custos B	!	!	!	!	!
2c\	-tris	.	.	2e\	.
!LO:PB:g=original	!	!	!	!	!
=123-	=123-	=123-	=123-	=123-	=123-
1B	.	1d	pa-	2f\	.
.	.	.	.	2g\	.
!	!	!LO:SIC:v:t=custos d	!	!	!
2A\	.	2e\	.	1a	.
!	!	!LO:LB:g=original	!	!	!
2F/	.	1d\	.	.	.
=124-	=124-	=124-	=124-	=124-	=124-
2G\	.	.	.	2g\	.
2A\	.	2c\	-tris	2e/	.
2D/	.	1d	.	1f	-tris
2.G/	mi-	.	.	.	.
=125-	=125-	=125-	=125-	=125-	=125-
.	.	1G	mi-	2r	.
4F/	-se-	.	.	.	.
2E/	-re-	.	.	2g\	mi-
!	!	!	!	!LO:SIC:v:t=custos e	!
2D/	-re	2A/	-se-	2f\	-se-
!	!	!	!	!LO:PB:g=original	!
2C/	.	1c\	.	2e/	.
=126-	=126-	=126-	=126-	=126-	=126-
1D	.	.	.	1f	.
.	.	2A/	.	.	.
1C	.	2.c/	-re-	2e/	.
.	.	.	.	2g\	.
.	.	4B/	-re	.	.
=127-	=127-	=127-	=127-	=127-	=127-
2F/	.	2A/	.	2f\	.
2C/	.	2G/	.	1e	.
2D/	.	2F/	.	.	.
!LO:SIC:v:t=custos A	!	!	!	!	!
2GG/	.	2G/	.	1d\	.
!LO:LB:g=original	!	!	!	!	!
=128-	=128-	=128-	=128-	=128-	=128-
1AA	.	1E	no-	.	.
.	.	.	.	2c/	-re-
2.A\	no-	2.D/	.	1.d	-re
!	!	!LO:SIC:v:t=custos F	!	!	!
4G/	.	4E/	.	.	.
!	!	!LO:LB:g=original	!	!	!
=129-	=129-	=129-	=129-	=129-	=129-
2F/	.	2F/	.	.	.
2E/	.	2.G/	.	2c/	no-
1D	.	.	.	1d	.
.	.	4E/	.	.	.
.	.	2F/	.	.	.
=130-	=130-	=130-	=130-	=130-	=130-
2BB/	.	1G	.	2d/	.
1C	.	.	.	1e	.
.	.	[1Gl;	-bis	.	.
4BB/	.	.	.	4d/	.
!	!	!	!	!LO:SIC:v:t=custos d	!
4AA/	.	.	.	4c/	.
!	!	!	!	!LO:LB:g=original	!
=131-	=131-	=131-	=131-	=131-	=131-
0GGl;	-bis	0G]	.	0dl;	-bis
=132||	=132||	=132||	=132||	=132||	=132||
0r	.	1r	.	1f	Qvo-
.	.	1c	Qvo-	1e	-ni-
=133-	=133-	=133-	=133-	=133-	=133-
1r	.	1B	-ni-	1d	-am
*	*	*	*	*lig	*
1F	Quo-	1A	-am	1f	tu
=134-	=134-	=134-	=134-	=134-	=134-
*	*	*lig	*	*	*
1E	-ni-	1c	tu	1g	.
*	*	*	*	*Xlig	*
!LO:SIC:v:t=custos F	!	!	!	!	!
2D/	-am	1d	.	2f\	so-
!LO:LB:g=original	!	!	!	!	!
2F/	tu	.	.	2a\	.
*	*	*Xlig	*	*	*
=135-	=135-	=135-	=135-	=135-	=135-
1G	so-	2.e\	so-	2.g\	.
!	!	!LO:SIC:v:t=custos c	!	!	!
.	.	4d\	.	4f\	.
*	*	*clefC3	*	*	*
!	!	!LO:PB:g=original	!	!	!
2.A\	-lus	2c/	-lus	2e\	.
!	!	!	!	!LO:SIC:v:t=custos g	!
.	.	2B/	.	2f\	.
8G/L	.	.	.	.	.
8F/J	.	.	.	.	.
!	!	!	!	!LO:LB:g=original	!
=136-	=136-	=136-	=136-	=136-	=136-
2E/	san-	2c/	.	2g\	.
2D/	-ctus	2d/	san-	4f\	.
.	.	.	.	4g\	.
1A	.	1e	.	1a	-lus
=137-	=137-	=137-	=137-	=137-	=137-
2r	.	1d	-ctus	2r	.
2D/	tu	.	.	2a\	san-
2A\	so-	2r	.	2f\	.
2.G\	-lus	2G/	tu	2.g\	.
=138-	=138-	=138-	=138-	=138-	=138-
.	.	1d	.	.	.
4A\	.	.	.	4f\	.
2B\	do-	.	.	2d/	.
2c\	.	1c	so-	1e	.
1A\	.	.	.	.	.
=139-	=139-	=139-	=139-	=139-	=139-
.	.	1f	-lus	1a	.
!LO:SIC:v:t=custos G	!	!	!	!	!
2F/	.	.	.	.	.
!LO:LB:g=original	!	!	!	!	!
2.G/	.	2e/	.	1g	-ctus
.	.	1d\	do-	.	.
4F/	.	.	.	.	.
=140-	=140-	=140-	=140-	=140-	=140-
2E/	.	.	.	2r	.
2E/	-mi-	2c/	-mi-	1g	tu
1D	-nus	2d/	.	.	.
.	.	2d/	-nus	2f\	.
=141-	=141-	=141-	=141-	=141-	=141-
!	!	!	!	!LO:SIC:v:t=custos d	!
2r	.	1g	tu	1e	so-
2C/	tu	.	.	.	.
!	!	!LO:SIC:v:t=custos g	!	!LO:LB:g=original	!
1D	so-	1f	so-	1d	-lus
!	!	!LO:LB:g=original	!	!	!
=142-	=142-	=142-	=142-	=142-	=142-
2E/	-lus	2g\	-lus	2c/	do-
1F	al-	1a	al-	4A/	-mi-
.	.	.	.	4G/	-(nus)
.	.	.	.	4A/	tu
.	.	.	.	4B/	.
2E/	-tis-	2g\	.	1c\	so-
=143-	=143-	=143-	=143-	=143-	=143-
1D	-ſi-	1f	-tis-	.	.
.	.	.	.	2B/	-lus
1C	-mus	1e	-ſi-	4c/	al-
.	.	.	.	4d/	-tis-
.	.	.	.	4e/	-ſi-
.	.	.	.	4f/	-mus
=144-	=144-	=144-	=144-	=144-	=144-
1G	.	1d	-mus	1g	.
1r	.	1r	.	1r	.
=145-	=145-	=145-	=145-	=145-	=145-
*lig	*	*lig	*	*lig	*
0C	Je-	1c	Je-	0g	Je-
.	.	1B	.	.	.
*	*	*Xlig	*	*	*
=146-	=146-	=146-	=146-	=146-	=146-
*col	*	*	*	*col	*
1.G	.	0A	-su	1.a	.
*Xlig	*	*	*	*Xlig	*
4E/	-su	.	.	4g\	.
!LO:SIC:v:t=custos C	!	!	!	!LO:SIC:v:t=custos e	!
4D/	.	.	.	4f\	.
*Xcol	*	*	*	*Xcol	*
!LO:LB:g=original	!	!	!	!LO:LB:g=original	!
=147-	=147-	=147-	=147-	=147-	=147-
1.C	cri-	1.c	.	1.e	-su
2D/	.	4B/	.	2f\	.
.	.	4A/	.	.	.
=148-	=148-	=148-	=148-	=148-	=148-
2E/	.	2G/	.	2g\	.
2F\	.	2A/	.	4f\	.
.	.	.	.	4e/	.
2G\	.	2B/	.	2d/	.
2C/	.	2c/	.	2e/	.
=149-	=149-	=149-	=149-	=149-	=149-
1D	-ste	1A	cri-	1d	chri-
!	!	!LO:SIC:v:t=custos D	!	!	!
1GGl;	.	1Gl;	-ste	1dl;	-ste
*	*	*clefC4	*	*	*
!	!	!LO:LB:g=original	!	!	!
=150||	=150||	=150||	=150||	=150||	=150||
1.D	cum	2.D/	cum	0r	.
.	.	4E/	.	.	.
.	.	2F/	.	.	.
4C/	.	1G/	san-	.	.
4BB/	.	.	.	.	.
=151-	=151-	=151-	=151-	=151-	=151-
1AA	san-	.	.	1r	.
.	.	2F/	-cto	.	.
1GG	-cto	2.G/	.	1.g	Cum
.	.	4A/	.	.	.
=152-	=152-	=152-	=152-	=152-	=152-
1r	.	2B/	spi-	.	.
.	.	1c	.	4f\	.
!	!	!	!	!LO:SIC:v:t=custos d	!
.	.	.	.	4e\	.
!	!	!	!	!LO:PB:g=original	!
2r	.	.	.	1d	san
2G\	spi-	2B/	.	.	.
=153-	=153-	=153-	=153-	=153-	=153-
!LO:SIC:v:t=custos c	!	!	!	!	!
2C/	.	2.c\	.	4c/	cto
.	.	.	.	4d/	.
*clefF3	*	*	*	*	*
!LO:PB:g=original	!	!	!	!	!
2.c\	.	.	.	4e/	spi-
.	.	4d\	.	4f/	.
.	.	2e\	.	2g\	.
4B\	.	.	.	.	.
4A/	.	2.f\	.	1a\	.
4G/	.	.	.	.	.
=154-	=154-	=154-	=154-	=154-	=154-
2F/	.	.	.	.	.
.	.	4e\	.	.	.
2G/	-ri-	1d	.	4g\	.
.	.	.	.	4f\	.
1A	-tu	.	.	1e	-ri-
!	!	!LO:SIC:v:t=custos d	!	!	!
.	.	2c\	-ri-	.	.
!	!	!LO:LB:g=original	!	!	!
=155-	=155-	=155-	=155-	=155-	=155-
2r	.	2d\	-tu	1d	-tu
2G/	in	2d\	in	.	.
2E/	glo-	1e	glo-	2r	.
2C/	-ri-	.	.	1g\	in
=156-	=156-	=156-	=156-	=156-	=156-
1G	-a	2d\	-ri-	.	.
.	.	1d	-a	2g\	glo-
2r	.	.	.	2g\	-ri-
2C/	de-	2c/	.	4f\	-a
!	!	!	!	!LO:SIC:v:t=custos d	!
.	.	.	.	4e/	.
!	!	!	!	!LO:LB:g=original	!
=157-	=157-	=157-	=157-	=157-	=157-
2D/	-i	2B/	.	2d/	.
2F/	pa-	2A/	.	2c/	.
2E/	.	2G/	de-	2g\	de-
!LO:SIC:v:t=custos C	!	!	!	!	!
2D/	.	2A/	-i	2f\	-i
*clefF4	*	*	*	*	*
!LO:LB:g=original	!	!	!	!	!
=158-	=158-	=158-	=158-	=158-	=158-
1C	-tris	2.c/	pa-	2.e/	.
.	.	4B/	.	4d/	pa-
2r	.	4A/	.	4e/	.
.	.	4G/	.	4c/	.
1D\	A-	1F/	.	2.f\	.
=159-	=159-	=159-	=159-	=159-	=159-
.	.	.	.	.	.
.	.	.	.	4e/	.
2GG/	.	2G/	.	1d	.
1AA	.	1E	.	.	.
.	.	.	.	2c/	-tris
=160-	=160-	=160-	=160-	=160-	=160-
2BB/	.	2D/	-tris	1d	.
2GG/	.	2.G/	A-	.	.
2C/	.	.	.	2r	.
.	.	4A/	.	.	.
!	!	!LO:SIC:v:t=custos c	!	!	!
2BB/	.	2B/	.	2d/	A-
!	!	!LO:LB:g=original	!	!	!
=161-	=161-	=161-	=161-	=161-	=161-
2AA/	.	2.c/	.	2.e/	.
2.C/	.	.	.	.	.
!	!	!	!	!LO:SIC:v:t=custos c	!
.	.	4B/	.	4d/	.
!	!	!	!	!LO:LB:g=original	!
.	.	2A/	.	2c/	.
4D/	.	.	.	.	.
2E/	.	2G/	.	2B/	.
=162-	=162-	=162-	=162-	=162-	=162-
2F/	.	2A/	.	2A/	.
2D/	.	2d\	.	2a\	.
!LO:SIC:v:t=custos C	!	!	!	!	!
2E/	.	2B/	.	4g\	.
.	.	.	.	4f\	.
!LO:LB:g=original	!	!	!	!	!
1C/	.	2.c\	.	4e\	.
.	.	.	.	4d\	.
=163-	=163-	=163-	=163-	=163-	=163-
.	.	.	.	2e\	.
.	.	4B/	.	.	.
2F/	.	4A/	.	2.f\	.
.	.	4G/	.	.	.
2D/	.	2F/	.	.	.
.	.	.	.	4e/	.
2E/	.	2G/	.	2.e/	.
=164-	=164-	=164-	=164-	=164-	=164-
2C/	.	1A	.	.	.
.	.	.	.	4d/	.
2D/	.	.	.	2.d/	.
2BB/	.	[1Gl;;	-men	.	.
.	.	.	.	4c/	.
2C/	.	.	.	2c/	-men
=165-	=165-	=165-	=165-	=165-	=165-
0GGl;;	-men	0G]	.	0dl;	.
==	==	==	==	==	==
*-	*-	*-	*-	*-	*-
!!!system-decoration: [(*)]
!!!RDF**kern: < = below
!!!RDF**kern: l = terminal long
!!!AIN: 1 alto 1 bass 1 tenor
!!!ENC: Anastazja Marusiak
!!!END: 2022-01-13
!!!ENC: Andrzej Kubiczek
!!!END: 2022-01-28
